X: 45
T:Dorian (re) Scales
L:1/4
M:10/4
K:BbDor
"^B flat"  B2 cd ef ga b2|b2 ag fe dc B2||
M:10/4
K:FDor
"^F"       F2 GA Bc de f2|f2 ed cB AG F2||
M:10/4
K:CDor
"^C"       C2 DE FG AB c2|c2 BA GF ED C2||
M:10/4
K:GDor
"^G"       G2 AB cd ef g2|g2 fe dc BA G2||
M:10/4
K:DDor
"^D"       D2 EF GA Bc d2|d2 cB AG FE D2||
M:10/4
K:ADor
"^A"       A2 Bc de fg a2|a2 gf ed cB A2||
M:10/4
K:EDor
"^E"       E2 FG AB cd e2|e2 dc BA GF E2||
M:10/4
K:BDor
"^B"       B2 cd ef ga b2|b2 ag fe dc B2||
M:10/4
K:F#Dor
"^F sharp" F2 GA Bc de f2|f2 ed cB AG F2|]

On the chanter, it's the E-final seven-note mode, but is not very
common in pipe music:

